X:1
T:James Gibb editions
T:Psalm 105 (Becker) - Schütz
%%score [ ( 1 2 ) ( 3 4 ) ]
L:1/8
Q:1/4=120
M:2/2
K:F
V:1 treble nm="Soprano Alto"
V:2 treble 
V:3 bass nm="Tenor Bass"
V:4 bass 
V:1
"^Cornelius Becker\n(1561-1604)""^Psalm 105, SWV 203""^Heinrich Schütz\n(1585-1672)" G4 G2 G2 | %1
w: ~Dan- ket dem|
w: ver- kün- di-|
 G4 F4 | G4 A4 | B6 c2 | B2 A2 G2 F2 | E8 | D8 :|[M:2/2] F4 F2 F2 | G4 A4 | B4 B4 | A8 | c4 B2 A2 | %12
w: Her- ren,|lobt ihn|frei und|pre- digt sei- nen|Na-|men,|macht von dem|Her- ren|Lie- der|gut|und lo- bet|
w: get sein|Tun ohn|Scheu den|Völ- kern all zu-|sam-|men,||||||
 B4 A4 | G4 G4 | ^F8 | ^F4 G2 A2 | B4 A4- | A2 (G4 ^F2) | G8 |] %19
w: ihn mit|fro- hem|Mut|und sagt von|sei- nen|* Wun *|dern.|
w: |||||||
V:2
 D4 D2 D2 | D4 D4 | D4 F4 | F6 F2 | D2 F2 E2 D2 | (D4 ^C4) | D8 :|[M:2/2] D4 D2 D2 | _E4 F4 | %9
 F4 E4 | F8 | F4 D2 F2 | F4 F4 | (_E2 D4) C2 | D8 | D4 D2 =F2 | F4 _E4 | D8 | D8 |] %19
V:3
 B,4 B,2 B,2 | B,4 A,4 | B,4 C4 | D6 A,2 | B,2 C2 C2 A,2 | A,8 | A,8 :|[M:2/2] B,4 B,2 B,2 | %8
 B,4 D4 | D4 (C2 B,2) | C8 | A,4 B,2 C2 | D4 C4 | %13
"^2. Rühmet den heilgen Namen sein, laßt euer Herz sich freuen,\ndie ihr in Furcht des Glaubens rein ihn suchet ohne Scheuen,\nfragt nach dem Herrn und seiner Macht, und nehmt allweg in gute acht,\ndaß ihr sein Antlitz suchet.\n\n4. Er ist ja unser Gott und Herr, der alle Welt recht richtet,\ndes Bunds vergißt er nimmermehr, den er durchs Wort gestiftet,\nwas er verheißen mit ein'm Schwur, auf so viel tausend für und für,\ndas wird er g'wißlich halten." B,4 G,4 | %14
 A,8 | A,4 B,2 C2 | D4 C4 | (B,2 A,G, A,4) | G,8 |] %19
V:4
 G,4 G,2 G,2 | G,4 D,4 | G,4 F,4 | B,6 F,2 | G,2 F,2 C,2 D,2 | A,,8 | D,8 :| %7
[M:2/2] B,,4 B,,2 B,,2 | _E,4 D,4 | G,4 G,4 | F,8 | F,4 G,2 F,2 | B,4 F,4 | G,4 _E,4 | D,8 | %15
 D,4 G,2 F,2 | B,,4 C,4 | D,8 | G,,8 |] %19

